src/svg/24/dismiss_24.svg

<?xml version="1.0" encoding="UTF-8"?>
<svg width="24px" height="24px" viewBox="0 0 24 24" version="1.1" xmlns="http://www.w3.org/2000/svg" xmlns:xlink="http://www.w3.org/1999/xlink">
    <!-- Generator: Sketch 55.2 (78181) - https://sketchapp.com -->
    <title>dismiss_24</title>
    <desc>Created with Sketch.</desc>
    <g id="Page-1" stroke="none" stroke-width="1" fill="none" fill-rule="evenodd">
        <g id="dismiss_24" fill="currentColor" fill-rule="nonzero">
            <circle opacity="0.12" cx="12" cy="12" r="12"></circle>
            <path d="M12,10.7272078 L15.46361,7.26359779 C15.8150819,6.91212593 16.3849303,6.91212593 16.7364022,7.26359779 C17.0878741,7.61506966 17.0878741,8.18491814 16.7364022,8.53639 L13.2727922,12 L16.7364022,15.46361 C17.0878741,15.8150819 17.0878741,16.3849303 16.7364022,16.7364022 C16.3849303,17.0878741 15.8150819,17.0878741 15.46361,16.7364022 L12,13.2727922 L8.53639,16.7364022 C8.18491814,17.0878741 7.61506966,17.0878741 7.26359779,16.7364022 C6.91212593,16.3849303 6.91212593,15.8150819 7.26359779,15.46361 L10.7272078,12 L7.26359779,8.53639 C6.91212593,8.18491814 6.91212593,7.61506966 7.26359779,7.26359779 C7.61506966,6.91212593 8.18491814,6.91212593 8.53639,7.26359779 L12,10.7272078 Z"></path>
        </g>
    </g>
</svg>

<svg fill="none" height="24" viewBox="0 0 24 24" width="24" xmlns="http://www.w3.org/2000/svg"><g fill="currentColor"><path d="m12 24c6.6274 0 12-5.3726 12-12 0-6.62742-5.3726-12-12-12-6.62742 0-12 5.37258-12 12 0 6.6274 5.37258 12 12 12z" opacity=".12"/><path d="m16.7364 7.2636c.3515.35148.3515.92132 0 1.2728l-3.4634 3.4636 3.4634 3.4636c.3222.3222.349.8279.0806 1.1806l-.0806.0922c-.3515.3515-.9213.3515-1.2728 0l-3.4636-3.4634-3.4636 3.4634c-.35148.3515-.92132.3515-1.2728 0-.35147-.3515-.35147-.9213 0-1.2728l3.4634-3.4636-3.4634-3.4636c-.32218-.32219-.34903-.82787-.08054-1.18063l.08054-.09217c.35148-.35147.92132-.35147 1.2728 0l3.4636 3.4634 3.4636-3.4634c.3515-.35147.9213-.35147 1.2728 0z"/></g></svg>
